X:1
T:Title
%%score { ( 1 4 5 ) | ( 2 3 ) }
L:1/8
M:9/8
K:A
V:1 treble nm="Grand Piano"
V:4 treble 
V:5 treble 
V:2 bass 
V:3 bass 
V:1
 z3 z3[Q:1/4=116] [CE]2 [CE] | [Ec]3 [EB]3 .[A,EA]2 [A,EA] | [DB]3 [DF]3 [FA]2 [FA] | G3 E2 F GAB | %4
[M:3/4] c6 |[M:3/8] [CE]2 [CE] |[M:9/8] [Ec]3 [EB]3 .[A,EA]2 [A,EA] | [DB]3 [DF]3 [FA]2 [FA] | %8
 G3 B2 B BA[^DF] |[M:3/4] E6 |[M:12/8] z3 d6- d E2 | GAB c2- [Ec-] [Ec-]2 [Ec-] [Ec]3 | %12
 z3 B6- B z z |[M:27/16] .B3/2 z/ z e/-e/-e/-e/-e/-e/-e/-e/-e/-e/-e/-e/-e/-e/-e/-e/-e/-e-<e | %14
[M:6/4] z2 z [Ac]3- [Ac]4- [Ac] z | z2 z [Fe]3 .[Fd]6 | [^EB]3 c2 c d2 c c3 |[M:9/8] z3 A6- | %18
 A3 z3 z3 |] %19
V:2
 z3 z3 [A,,A,]2 [A,,A,] | [A,,A,]3 [B,,G,]3 z GC, | [D,F,]3 [D,B,]3 [^D,B,]2 [D,B,] | %3
 [E,B,E]3 [E,G,]2 [E,A,E] [E,B,E][E,CE][E,G,E] |[M:3/4] [A,E]6 |[M:3/8] [A,,A,]2 [A,,A,] | %6
[M:9/8] [A,,A,]3 [B,,G,]3 z GC, | [D,F,]3 [D,B,]3 [^D,B,]2 [D,B,] | %8
 [E,B,E]3 [G,B,E]2 [G,B,E] [B,^D][B,D][B,,A,] |[M:3/4] [E,G,]6 | %10
[M:12/8] z3 [E,B,]2 [E,B,] [E,B,]2 [E,B,] [E,G,]3 | %11
 [E,B,E]3 [A,,A,]2 [A,,A,] [A,,A,]2 [A,,A,] [A,,A,]3 | z3 [E,G,E]2 [E,G,] [E,G,]2 [E,G,] [B,,F,]3 | %13
[M:27/16] z c[K:treble]^d[K:bass][E,B,]/-[E,B,]/-[E,B,]-<[E,B,][E,C]/-[E,C]/-[E,C]-<[E,C][E,D]/-[E,D]/-[E,D]/-[E,D]/-[E,D]/-[E,D]-<[E,D] | %14
[M:6/4][K:treble] c2 B A,2 A, A,2 .A,3 A | AG=G[K:bass] .[D,A,]3 [D,A,]2 D, D,3 | %16
 [D,A,]3 [E,A,E]2 [E,A,E] [E,B,E]2 [E,A,E] [E,A,E]3 | %17
[M:9/8] [E,G,D]3 [A,,A,]2 [A,,E,] [A,,F,]2 [A,,F,] | [A,,E,]3 z3 z3 |] %19
V:3
 x9 | z3 z3 .C,3 | x9 | x9 |[M:3/4] x6 |[M:3/8] x3 |[M:9/8] z3 z3 .C,3 | x9 | x9 |[M:3/4] x6 | %10
[M:12/8] x12 | x12 | x12 | %13
[M:27/16] B,,/-B,,/-B,,-<B,,[K:treble][K:bass] z/ z/ z/ z/ z/ z/ z/ z/ z/ z/ z/ z/ z/ z/ z/ z/ z/ z/ z/ z | %14
[M:6/4][K:treble] z6 z2 z A,3 | x3[K:bass] x9 | x12 |[M:9/8] x9 | x9 |] %19
V:4
 x9 | x9 | x9 | x9 |[M:3/4] x6 |[M:3/8] x3 |[M:9/8] x9 | x9 | x9 |[M:3/4] x6 | %10
[M:12/8] E2 E G2 G G2 G .E2 F | z3 .E3 z6 | c2 c z2 E E2 E z BB | %13
[M:27/16] [B,A]/-[B,A]/-[B,A]-<[B,A]G/-G/-G-<GA/-A/-A-<AB/-B/-B/-B/-B/-B-<B | %14
[M:6/4] e2 d E2 E E2 .E3 c | cd .e3 [D,A,] z2 A, [A,FA]3 | x12 |[M:9/8] B3 C2 C D2 D | C3 z3 z3 |] %19
V:5
 x9 | x9 | x9 | x9 |[M:3/4] x6 |[M:3/8] x3 |[M:9/8] x9 | x9 | x9 |[M:3/4] x6 |[M:12/8] x12 | x12 | %12
 z6 z3 ^D3 |[M:27/16] x27/2 |[M:6/4] z6 z2 z E3 | x12 | x12 |[M:9/8] x9 | x9 |] %19

